svgs/sharp-duotone-thin/mars-stroke.svg

<svg xmlns="http://www.w3.org/2000/svg" viewBox="0 0 512 512"><!--! Font Awesome Pro 7.1.0 by @fontawesome - https://fontawesome.com License - https://fontawesome.com/license (Commercial License) Copyright 2025 Fonticons, Inc. --><path opacity=".4" fill="currentColor" d="M48 304a160 160 0 1 0 320 0 160 160 0 1 0 -320 0z"/><path fill="currentColor" d="M376 0l-8 0 0 16 116.7 0-92.7 92.7-42.3-42.3-5.7-5.7-11.3 11.3 5.7 5.7 42.3 42.3-50.3 50.3-3.7 3.7c-31.3-28.6-72.9-46-118.7-46-97.2 0-176 78.8-176 176s78.8 176 176 176 176-78.8 176-176c0-45.7-17.4-87.4-46-118.7l3.7-3.7 50.3-50.3 42.3 42.3 5.7 5.7 11.3-11.3-5.7-5.7-42.3-42.3 92.7-92.7 0 116.7 16 0 0-144-136 0zM48 304a160 160 0 1 1 320 0 160 160 0 1 1 -320 0z"/></svg>

<svg xmlns="http://www.w3.org/2000/svg" viewBox="0 0 512 512"><!--! Font Awesome Pro 6.7.2 by @fontawesome - https://fontawesome.com License - https://fontawesome.com/license (Commercial License) Copyright 2024 Fonticons, Inc. --><defs><style>.fa-secondary{opacity:.4}</style></defs><path class="fa-secondary" d="M48 304a160 160 0 1 0 320 0A160 160 0 1 0 48 304z"/><path class="fa-primary" d="M376 0l-8 0 0 16 8 0 108.7 0L392 108.7 349.7 66.3 344 60.7 332.7 72l5.7 5.7L380.7 120l-50.3 50.3-3.7 3.7c-31.3-28.6-72.9-46-118.7-46c-97.2 0-176 78.8-176 176s78.8 176 176 176s176-78.8 176-176c0-45.7-17.4-87.4-46-118.7l3.7-3.7L392 131.3l42.3 42.3 5.7 5.7L451.3 168l-5.7-5.7L403.3 120 496 27.3 496 136l0 8 16 0 0-8L512 8l0-8-8 0L376 0zM48 304a160 160 0 1 1 320 0A160 160 0 1 1 48 304z"/></svg>
